img/logo2.svg

<svg width="463" height="93" viewBox="0 0 463 93" fill="none" xmlns="http://www.w3.org/2000/svg">
<g clip-path="url(#clip0)">
<path fill-rule="evenodd" clip-rule="evenodd" d="M169.65 55.25C171.175 55.2179 172.692 55.4926 174.109 56.0577C175.526 56.6229 176.815 57.467 177.9 58.54C178.967 59.6029 179.814 60.866 180.391 62.2568C180.969 63.6477 181.266 65.1389 181.266 66.645C181.266 68.1511 180.969 69.6423 180.391 71.0332C179.814 72.424 178.967 73.6871 177.9 74.75C176.811 75.8149 175.521 76.651 174.104 77.2092C172.687 77.7674 171.172 78.0363 169.65 78H155.57V40.52H178.06V45.24H160.55V55.24L169.65 55.25ZM169.65 73.35C170.536 73.3581 171.415 73.1887 172.235 72.8518C173.055 72.5148 173.799 72.0171 174.424 71.388C175.048 70.7589 175.54 70.0111 175.871 69.1888C176.202 68.3665 176.365 67.4863 176.35 66.6C176.366 65.7111 176.197 64.8286 175.852 64.009C175.508 63.1894 174.996 62.4506 174.35 61.84C173.733 61.2129 172.994 60.7183 172.179 60.3864C171.364 60.0546 170.49 59.8925 169.61 59.91H160.51V73.35H169.65ZM203.45 51.23H208.45L197.5 79.67C196.581 82.3921 194.91 84.7983 192.68 86.61C190.674 88.1807 188.149 88.9344 185.61 88.72V84.39C188.903 84.6433 191.313 82.8567 192.84 79.03L193.27 78.03L181.65 51.23H186.58L195.74 72.23L203.45 51.23ZM235.58 78H230.12L222.62 67.88L215.07 78H209.61L219.89 64.24L210.2 51.24H215.71L222.62 60.56L229.53 51.24H235L225.36 64.24L235.58 78ZM257.49 51.22V55.72H244.58V78H239.92V51.23L257.49 51.22ZM282.66 51.22H287.32V78H282.66V73.4C281.591 75.0978 280.091 76.4824 278.314 77.4132C276.537 78.3441 274.545 78.788 272.54 78.7C270.744 78.7243 268.963 78.372 267.311 77.6658C265.659 76.9597 264.174 75.9153 262.95 74.6C260.4 71.8947 258.98 68.3175 258.98 64.6C258.98 60.8825 260.4 57.3053 262.95 54.6C264.174 53.286 265.66 52.2432 267.312 51.5387C268.963 50.8343 270.745 50.4838 272.54 50.51C274.545 50.422 276.537 50.8659 278.314 51.7968C280.091 52.7276 281.591 54.1122 282.66 55.81V51.23V51.22ZM273.13 74.22C274.392 74.2524 275.648 74.024 276.818 73.5491C277.988 73.0742 279.047 72.363 279.93 71.46C281.682 69.6178 282.66 67.1725 282.66 64.63C282.66 62.0875 281.682 59.6422 279.93 57.8C278.116 56.0364 275.685 55.0498 273.155 55.0498C270.625 55.0498 268.194 56.0364 266.38 57.8C264.628 59.6422 263.651 62.0875 263.651 64.63C263.651 67.1725 264.628 69.6178 266.38 71.46C267.255 72.3597 268.306 73.0691 269.467 73.544C270.629 74.0189 271.876 74.2491 273.13 74.22ZM316.72 51.22V78H312.06V55.73H301.51V66.66C301.51 71.0533 300.627 74.1133 298.86 75.84C297.09 77.57 294.6 78.3 291.39 78.01V73.62C292.119 73.7946 292.88 73.7757 293.6 73.5652C294.319 73.3547 294.97 72.9599 295.49 72.42C296.4 71.36 296.85 69.42 296.85 66.55V51.23L316.72 51.22ZM343.72 51.22V55.72H334.62V78H330V55.73H320.84V51.23L343.72 51.22ZM350 66.77C350.354 68.9757 351.529 70.9657 353.29 72.34C355.139 73.7053 357.393 74.4097 359.69 74.34C363.23 74.34 365.8 73.03 367.41 70.43L371.41 72.68C368.797 76.68 364.87 78.68 359.63 78.68C357.72 78.7565 355.815 78.4411 354.031 77.7532C352.248 77.0653 350.624 76.0194 349.26 74.68C347.939 73.3585 346.903 71.7807 346.215 70.0437C345.527 68.3068 345.202 66.4474 345.26 64.58C345.207 62.7255 345.525 60.8791 346.197 59.1496C346.868 57.4202 347.879 55.8426 349.17 54.51C350.488 53.1791 352.068 52.1363 353.81 51.4478C355.552 50.7592 357.418 50.4399 359.29 50.51C361.1 50.4522 362.9 50.7942 364.563 51.5115C366.226 52.2287 367.71 53.3038 368.91 54.66C371.381 57.3962 372.712 60.974 372.63 64.66C372.63 65.3597 372.576 66.0584 372.47 66.75L350 66.77ZM359.26 54.93C357.021 54.8168 354.822 55.555 353.104 56.9962C351.386 58.4374 350.277 60.4751 350 62.7H367.89C367.649 60.4628 366.579 58.3971 364.89 56.91C363.313 55.5919 361.315 54.8824 359.26 54.91V54.93ZM392.74 50.54C394.534 50.514 396.314 50.8645 397.964 51.569C399.614 52.2735 401.098 53.3163 402.32 54.63C404.877 57.3319 406.301 60.9103 406.301 64.63C406.301 68.3497 404.877 71.9281 402.32 74.63C401.098 75.945 399.615 76.9893 397.965 77.6955C396.315 78.4017 394.535 78.7541 392.74 78.73C390.734 78.8178 388.741 78.3738 386.962 77.4431C385.183 76.5123 383.682 75.1279 382.61 73.43V88.72H377.96V51.23H382.61V55.84C383.682 54.1421 385.183 52.7577 386.962 51.827C388.741 50.8962 390.734 50.4522 392.74 50.54ZM392.15 74.21C393.405 74.2391 394.651 74.0089 395.813 73.534C396.974 73.0591 398.025 72.3497 398.9 71.45C400.652 69.6078 401.63 67.1625 401.63 64.62C401.63 62.0775 400.652 59.6322 398.9 57.79C397.086 56.0264 394.655 55.0398 392.125 55.0398C389.595 55.0398 387.164 56.0264 385.35 57.79C383.591 59.6287 382.609 62.0753 382.609 64.62C382.609 67.1647 383.591 69.6113 385.35 71.45C386.232 72.3535 387.292 73.065 388.462 73.5399C389.632 74.0149 390.888 74.243 392.15 74.21ZM431.3 51.21H435V78H430.39V59.21L415.59 78H411.84V51.23H416.44V70L431.28 51.2L431.3 51.21ZM462.15 51.21V78H457.54V68.37H453.63L446.11 78H440.44L448.25 68.09C446.346 67.6414 444.637 66.5891 443.38 65.09C442.148 63.6207 441.484 61.7576 441.51 59.84C441.481 58.6856 441.7 57.5385 442.152 56.4759C442.604 55.4133 443.279 54.4599 444.13 53.68C445.917 52.0224 448.284 51.1351 450.72 51.21H462.15ZM450.9 64.21H457.54V55.57H450.9C449.67 55.5352 448.47 55.9553 447.53 56.75C447.072 57.1357 446.708 57.6207 446.465 58.1683C446.222 58.7159 446.108 59.3115 446.13 59.91C446.111 60.5008 446.227 61.0881 446.47 61.6271C446.713 62.1661 447.075 62.6425 447.53 63.02C448.466 63.8065 449.658 64.2227 450.88 64.19L450.9 64.21Z" fill="white"/>
<path fill-rule="evenodd" clip-rule="evenodd" d="M7.79 26.54H138.18V85C138.18 87.066 137.359 89.0475 135.898 90.5084C134.437 91.9693 132.456 92.79 130.39 92.79H7.79C5.72396 92.79 3.74255 91.9693 2.28164 90.5084C0.82073 89.0475 0 87.066 0 85L0 34.33C0 32.264 0.82073 30.2826 2.28164 28.8216C3.74255 27.3607 5.72396 26.54 7.79 26.54V26.54Z" fill="#FBBA00"/>
<path fill-rule="evenodd" clip-rule="evenodd" d="M154.38 19.48C157 16 158.26 10 156.22 0C130.48 4 136 17.91 138.46 22.26C142.251 16.3819 146.722 10.9712 151.78 6.14C148.351 11.0938 145.385 16.3527 142.92 21.85C146.39 17.85 150.46 17.64 154.38 19.48V19.48ZM162.48 27.64C151.2 40.36 145.15 33.32 142.9 29.5C146.403 28.3347 150.092 27.8262 153.78 28C150.057 26.8504 146.162 26.3597 142.27 26.55C143.64 23.26 149.28 13.55 162.48 27.64Z" fill="#85BC22"/>
<path fill-rule="evenodd" clip-rule="evenodd" d="M78.76 41.08H82.15V44.47H78.76V41.08ZM30.21 62.32L38.63 41.08H44.23L31.29 71.57C29.39 76.04 26.9 78.02 22.29 78.2C19.899 78.2363 17.5231 77.8155 15.29 76.96V72.69C19.66 73.97 20.23 74.12 21.79 74.09C23.92 74.09 25.72 72.95 27.79 68.17L15.32 41.08H20.73L30.21 62.32V62.32ZM66.92 78.2H62.25V68.33C60.1972 68.8708 58.0829 69.1431 55.96 69.14C49.41 69.14 45.52 65.76 45.46 59.08V51H50.11V59.27C50.11 63.33 52.11 65.1 55.96 65.1C58.0829 65.1031 60.1972 64.8308 62.25 64.29V51H66.92V78.2ZM85.52 78.2C76.8 78.2 72.58 72.48 72.58 64.51C72.58 57.51 77.09 51.02 84.92 51.02C94.68 51.02 96.53 58.15 96.53 65.9H76.88C76.8751 67.0418 77.1014 68.1728 77.5452 69.2249C77.9891 70.2769 78.6413 71.2282 79.4626 72.0215C80.2839 72.8148 81.2573 73.4336 82.3241 73.8406C83.3909 74.2477 84.5291 74.4345 85.67 74.39C87.1054 74.4508 88.5352 74.176 89.8458 73.5876C91.1564 72.9991 92.3118 72.1131 93.22 71L96.22 73.13C93.82 76.51 90.2534 78.2 85.52 78.2V78.2ZM84.92 54.69C80.37 54.69 77.56 58.26 77.04 62.23H92.23C92.23 58.16 89.48 54.69 84.92 54.69V54.69ZM122.85 54.78H113.73V78.2H109.08V54.78H100.08V51H122.8V54.76L122.85 54.78ZM87 41.11H90.39V44.5H87V41.11Z" fill="white"/>
</g>
<defs>
<clipPath id="clip0">
<rect width="462.13" height="92.76" fill="white"/>
</clipPath>
</defs>
</svg>

<svg width="463" height="93" viewBox="0 0 463 93" fill="none" xmlns="http://www.w3.org/2000/svg"><g clip-path="url(#a)" fill-rule="evenodd" clip-rule="evenodd"><path d="M169.65 55.25a11.393 11.393 0 0 1 8.25 3.29 11.429 11.429 0 0 1 3.366 8.105 11.434 11.434 0 0 1-3.366 8.105 11.41 11.41 0 0 1-8.25 3.25h-14.08V40.52h22.49v4.72h-17.51v10l9.1.01zm0 18.1a6.643 6.643 0 0 0 6.7-6.75 6.381 6.381 0 0 0-2-4.76 6.468 6.468 0 0 0-4.74-1.93h-9.1v13.44h9.14zm33.8-22.12h5L197.5 79.67a15.21 15.21 0 0 1-4.82 6.94 10.09 10.09 0 0 1-7.07 2.11v-4.33c3.293.253 5.703-1.533 7.23-5.36l.43-1-11.62-26.8h4.93l9.16 21 7.71-21zM235.58 78h-5.46l-7.5-10.12L215.07 78h-5.46l10.28-13.76-9.69-13h5.51l6.91 9.32 6.91-9.32H235l-9.64 13L235.58 78zm21.91-26.78v4.5h-12.91V78h-4.66V51.23l17.57-.01zm25.17 0h4.66V78h-4.66v-4.6a11.37 11.37 0 0 1-10.12 5.3 12.86 12.86 0 0 1-9.59-4.1 14.579 14.579 0 0 1 0-20 12.85 12.85 0 0 1 9.59-4.09 11.368 11.368 0 0 1 10.12 5.3v-4.59zm-9.53 23a9.181 9.181 0 0 0 6.8-2.76 9.912 9.912 0 0 0 0-13.66 9.72 9.72 0 0 0-13.55 0 9.91 9.91 0 0 0 0 13.66 9.126 9.126 0 0 0 6.75 2.76zm43.59-23V78h-4.66V55.73h-10.55v10.93c0 4.393-.883 7.453-2.65 9.18-1.77 1.73-4.26 2.46-7.47 2.17v-4.39a4.301 4.301 0 0 0 4.1-1.2c.91-1.06 1.36-3 1.36-5.87V51.23l19.87-.01zm27 0v4.5h-9.1V78H330V55.73h-9.16v-4.5l22.88-.01zM350 66.77a8.842 8.842 0 0 0 3.29 5.57 10.251 10.251 0 0 0 6.4 2c3.54 0 6.11-1.31 7.72-3.91l4 2.25c-2.613 4-6.54 6-11.78 6a14.003 14.003 0 0 1-10.37-4 13.687 13.687 0 0 1-4-10.1 13.897 13.897 0 0 1 3.91-10.07 13.529 13.529 0 0 1 10.12-4 12.32 12.32 0 0 1 9.62 4.15 14.441 14.441 0 0 1 3.72 10c0 .7-.054 1.398-.16 2.09l-22.47.02zm9.26-11.84A8.88 8.88 0 0 0 350 62.7h17.89a8.998 8.998 0 0 0-3-5.79 8.6 8.6 0 0 0-5.63-2v.02zm33.48-4.39a12.831 12.831 0 0 1 9.58 4.09 14.547 14.547 0 0 1 0 20 12.844 12.844 0 0 1-9.58 4.1 11.39 11.39 0 0 1-10.13-5.3v15.29h-4.65V51.23h4.65v4.61a11.392 11.392 0 0 1 10.13-5.3zm-.59 23.67a9.12 9.12 0 0 0 6.75-2.76 9.912 9.912 0 0 0 0-13.66 9.72 9.72 0 0 0-13.55 0 9.88 9.88 0 0 0 0 13.66 9.168 9.168 0 0 0 6.8 2.76zm39.15-23h3.7V78h-4.61V59.21L415.59 78h-3.75V51.23h4.6V70l14.84-18.8.02.01zm30.85 0V78h-4.61v-9.63h-3.91L446.11 78h-5.67l7.81-9.91a9.07 9.07 0 0 1-4.87-3 8.003 8.003 0 0 1-1.87-5.25 8.076 8.076 0 0 1 2.62-6.16 9.27 9.27 0 0 1 6.59-2.47h11.43zm-11.25 13h6.64v-8.64h-6.64a5.001 5.001 0 0 0-3.37 1.18 3.947 3.947 0 0 0-1.4 3.16 3.874 3.874 0 0 0 1.4 3.11 5 5 0 0 0 3.35 1.17l.02.02z" fill="#fff"/><path d="M7.79 26.54h130.39V85a7.79 7.79 0 0 1-7.79 7.79H7.79A7.79 7.79 0 0 1 0 85V34.33a7.79 7.79 0 0 1 7.79-7.79z" fill="#FBBA00"/><path d="M154.38 19.48C157 16 158.26 10 156.22 0 130.48 4 136 17.91 138.46 22.26a88.993 88.993 0 0 1 13.32-16.12 98.191 98.191 0 0 0-8.86 15.71c3.47-4 7.54-4.21 11.46-2.37zm8.1 8.16c-11.28 12.72-17.33 5.68-19.58 1.86a29.997 29.997 0 0 1 10.88-1.5 33.47 33.47 0 0 0-11.51-1.45c1.37-3.29 7.01-13 20.21 1.09z" fill="#85BC22"/><path d="M78.76 41.08h3.39v3.39h-3.39v-3.39zM30.21 62.32l8.42-21.24h5.6L31.29 71.57c-1.9 4.47-4.39 6.45-9 6.63a18.77 18.77 0 0 1-7-1.24v-4.27c4.37 1.28 4.94 1.43 6.5 1.4 2.13 0 3.93-1.14 6-5.92L15.32 41.08h5.41l9.48 21.24zM66.92 78.2h-4.67v-9.87a24.55 24.55 0 0 1-6.29.81c-6.55 0-10.44-3.38-10.5-10.06V51h4.65v8.27c0 4.06 2 5.83 5.85 5.83a24.55 24.55 0 0 0 6.29-.81V51h4.67v27.2zm18.6 0c-8.72 0-12.94-5.72-12.94-13.69 0-7 4.51-13.49 12.34-13.49 9.76 0 11.61 7.13 11.61 14.88H76.88a8.461 8.461 0 0 0 8.79 8.49A9.24 9.24 0 0 0 93.22 71l3 2.13c-2.4 3.38-5.967 5.07-10.7 5.07zm-.6-23.51c-4.55 0-7.36 3.57-7.88 7.54h15.19c0-4.07-2.75-7.54-7.31-7.54zm37.93.09h-9.12V78.2h-4.65V54.78h-9V51h22.72v3.76l.05.02zM87 41.11h3.39v3.39H87v-3.39z" fill="#fff"/></g><defs><clipPath id="a"><path fill="#fff" d="M0 0h462.13v92.76H0z"/></clipPath></defs></svg>
